T: Drowsy Maggie
M: 4/4
L: 1/8
K: Edor
|:E2BE dEBE|E2BE AFDF|E2BE dEBE|BABc dAFD:|K:Dd2fd c2ec|defg afge|d2fd c2ec|BABc dAFA|d2fd c2ec|defg afge|afge fdec|BABc dAFD|
